assets/Hammer/Flat/hammer_flat.svg

<svg width="32" height="32" viewBox="0 0 32 32" fill="none" xmlns="http://www.w3.org/2000/svg">
<path d="M14.1215 9.87866L29.1215 24.8787C30.2931 26.0502 30.2931 27.9497 29.1215 29.1213C27.95 30.2929 26.0505 30.2929 24.8789 29.1213L9.87891 14.1213L14.1215 9.87866Z" fill="#7D4533"/>
<path d="M12.4272 3.22946C12.534 3.12267 12.6833 3.06987 12.8335 3.0858L16.0299 3.425C16.4479 3.46936 16.6279 3.97849 16.3307 4.27576L13.6065 6.99988C13.6065 6.99988 13.1796 7.51941 13.6568 7.99988L15.6065 9.94963C15.8018 10.1449 15.8018 10.4615 15.6065 10.6567L10.6568 15.6065C10.4615 15.8017 10.1449 15.8017 9.94967 15.6065L9.65968 15.3165L6.49988 14.4999L5.53067 11.1875L5.35348 11.0103C5.15822 10.815 5.15822 10.4984 5.35348 10.3032L12.4272 3.22946Z" fill="#B4ACBC"/>
<path d="M2.17674 12.2981C2.07911 12.2005 2.07911 12.0422 2.17674 11.9446L2.82021 11.3011C3.60126 10.5201 4.86758 10.5201 5.64863 11.3011L9.53772 15.1902C10.3188 15.9713 10.3188 17.2376 9.53772 18.0186L8.89425 18.6621C8.79662 18.7597 8.63833 18.7597 8.5407 18.6621L2.17674 12.2981Z" fill="#CDC4D6"/>
</svg>

<svg xmlns="http://www.w3.org/2000/svg" width="32" height="32" fill="none"><path fill="#7D4533" d="m14.121 9.879 15 15a3 3 0 1 1-4.242 4.242l-15-15L14.12 9.88Z"/><path fill="#B4ACBC" d="M12.427 3.23a.5.5 0 0 1 .407-.144l3.196.339a.5.5 0 0 1 .3.85L13.608 7s-.427.52.05 1l1.95 1.95a.5.5 0 0 1 0 .707l-4.95 4.95a.5.5 0 0 1-.707 0l-.29-.29L6.5 14.5l-.97-3.313-.177-.177a.5.5 0 0 1 0-.707l7.074-7.074Z"/><path fill="#CDC4D6" d="M2.177 12.298a.25.25 0 0 1 0-.353l.643-.644a2 2 0 0 1 2.829 0l3.889 3.89a2 2 0 0 1 0 2.828l-.644.643a.25.25 0 0 1-.353 0l-6.364-6.364Z"/></svg>
